img/whatsapp.svg

<svg width="30" height="30" viewBox="0 0 30 30" fill="none" xmlns="http://www.w3.org/2000/svg">
<circle cx="15" cy="15" r="14.75" stroke="#4CAF50" stroke-width="0.5"/>
<g clip-path="url(#clip0)">
<path d="M14.9957 7.00537C10.58 7.00631 7.00119 10.5867 7.00213 15.0024C7.00244 16.5314 7.44121 18.0282 8.26635 19.3154L7.02243 22.5429C6.95619 22.7145 7.04164 22.9074 7.21329 22.9736C7.25167 22.9884 7.29243 22.996 7.33356 22.9959C7.37172 22.9961 7.40961 22.9896 7.44549 22.9766L10.7769 21.7873C14.525 24.1217 19.4559 22.9756 21.7903 19.2274C24.1247 15.4792 22.9786 10.5484 19.2304 8.214C17.9598 7.42266 16.4926 7.00391 14.9957 7.00537Z" fill="#4CAF50"/>
<path d="M18.8075 16.3661C18.8075 16.3661 17.9913 15.9663 17.4803 15.6998C16.902 15.402 16.2224 15.9597 15.9026 16.2768C15.4048 16.0856 14.9502 15.7971 14.5654 15.428C14.1962 15.0432 13.9077 14.5886 13.7165 14.0908C14.0337 13.7703 14.59 13.0914 14.2935 12.5131C14.0303 12.0014 13.6273 11.1858 13.6273 11.1852C13.5707 11.0729 13.4558 11.0021 13.3301 11.002H12.6638C11.6935 11.1695 10.988 12.0162 10.9982 13.0008C10.9982 14.0468 12.2501 16.0563 13.0943 16.9011C13.9384 17.7459 15.9479 18.9972 16.9946 18.9972C17.9792 19.0073 18.8258 18.3018 18.9934 17.3316V16.6653C18.9935 16.5382 18.9214 16.4222 18.8075 16.3661Z" fill="#FAFAFA"/>
</g>
<defs>
<clipPath id="clip0">
<rect width="16" height="16" fill="white" transform="translate(7 7)"/>
</clipPath>
</defs>
</svg>

<svg width="30" height="30" viewBox="0 0 30 30" fill="none" xmlns="http://www.w3.org/2000/svg"><circle cx="15" cy="15" r="14.75" stroke="#4CAF50" stroke-width=".5"/><g clip-path="url(#clip0)"><path d="M14.996 7.005a7.995 7.995 0 00-6.73 12.31l-1.244 3.228a.333.333 0 00.423.434l3.332-1.19a7.995 7.995 0 104.219-14.782z" fill="#4CAF50"/><path d="M18.808 16.366s-.817-.4-1.328-.666c-.578-.298-1.258.26-1.577.577a4.007 4.007 0 01-1.338-.849 4.006 4.006 0 01-.848-1.337c.317-.32.873-1 .576-1.578-.263-.512-.666-1.327-.666-1.328a.333.333 0 00-.297-.183h-.666a2.007 2.007 0 00-1.666 1.999c0 1.046 1.252 3.055 2.096 3.9.844.845 2.854 2.096 3.9 2.096a2.008 2.008 0 002-1.665v-.667a.333.333 0 00-.186-.299z" fill="#FAFAFA"/></g><defs><clipPath id="clip0"><path fill="#fff" transform="translate(7 7)" d="M0 0h16v16H0z"/></clipPath></defs></svg>
